try.svg

<svg xmlns="http://www.w3.org/2000/svg" viewBox="0 0 1440 270" xmlns:v="https://vecta.io/nano"><defs><linearGradient id="A" x1="0" x2="0" y1="1" y2="0"><stop stop-color="rgba(0, 167.147, 209.784, 1)" offset="0%"/><stop stop-color="rgba(0, 205.231, 59.237, 1)" offset="100%"/></linearGradient></defs><path fill="url(#A)" d="M0 189h17.1c17.2 0 51.9 0 85.9-18 34.1-18 68-54 103-81 34-27 68-45 103-31.5 33.9 13.5 68 58.5 102 72 34.7 13.5 69-4.5 103 0 34.6 4.5 69 31.5 103 13.5 34.4-18 69-81 103-112.5C754.3 0 789 0 823 22.5c34.1 22.5 68 67.5 103 99 34 31.5 68 49.5 103 45 33.9-4.5 68-31.5 102-45 34.7-13.5 69-13.5 103-13.5 34.6 0 69 0 103 13.5 34.4 13.5 69 40.5 103 63 34.3 22.5 69 40.5 103 13.5 34.1-27 68-99 103-99 34 0 68 72 103 76.5 33.9 4.5 68-58.5 102-94.5 34.7-36 69-45 103-36 34.6 9 69 36 103 36 34.4 0 69-27 103-18 34.3 9 69 54 103 76.5 34.1 22.5 68 22.5 103 4.5 34-18 68-54 85-72l17.6-18v216h-17.2-85.4-103-103-103-103-103-102-103-103-103-103-103-103-102-103-103-103-103-103-103-102-103-103-86H0z"/></svg>

<svg id="wave" style="transform:rotate(0deg); transition: 0.3s" viewBox="0 0 1440 270" version="1.1"
	xmlns="http://www.w3.org/2000/svg">
	<defs>
		<linearGradient id="sw-gradient-0" x1="0" x2="0" y1="1" y2="0">
			<stop stop-color="rgba(0, 167.147, 209.784, 1)" offset="0%"></stop>
			<stop stop-color="rgba(0, 205.231, 59.237, 1)" offset="100%"></stop>
		</linearGradient>
	</defs>
	<path style="transform:translate(0, 0px); opacity:1" fill="url(#sw-gradient-0)"
		d="M0,189L17.1,189C34.3,189,69,189,103,171C137.1,153,171,117,206,90C240,63,274,45,309,58.5C342.9,72,377,117,411,130.5C445.7,144,480,126,514,130.5C548.6,135,583,162,617,144C651.4,126,686,63,720,31.5C754.3,0,789,0,823,22.5C857.1,45,891,90,926,121.5C960,153,994,171,1029,166.5C1062.9,162,1097,135,1131,121.5C1165.7,108,1200,108,1234,108C1268.6,108,1303,108,1337,121.5C1371.4,135,1406,162,1440,184.5C1474.3,207,1509,225,1543,198C1577.1,171,1611,99,1646,99C1680,99,1714,171,1749,175.5C1782.9,180,1817,117,1851,81C1885.7,45,1920,36,1954,45C1988.6,54,2023,81,2057,81C2091.4,81,2126,54,2160,63C2194.3,72,2229,117,2263,139.5C2297.1,162,2331,162,2366,144C2400,126,2434,90,2451,72L2468.6,54L2468.6,270L2451.4,270C2434.3,270,2400,270,2366,270C2331.4,270,2297,270,2263,270C2228.6,270,2194,270,2160,270C2125.7,270,2091,270,2057,270C2022.9,270,1989,270,1954,270C1920,270,1886,270,1851,270C1817.1,270,1783,270,1749,270C1714.3,270,1680,270,1646,270C1611.4,270,1577,270,1543,270C1508.6,270,1474,270,1440,270C1405.7,270,1371,270,1337,270C1302.9,270,1269,270,1234,270C1200,270,1166,270,1131,270C1097.1,270,1063,270,1029,270C994.3,270,960,270,926,270C891.4,270,857,270,823,270C788.6,270,754,270,720,270C685.7,270,651,270,617,270C582.9,270,549,270,514,270C480,270,446,270,411,270C377.1,270,343,270,309,270C274.3,270,240,270,206,270C171.4,270,137,270,103,270C68.6,270,34,270,17,270L0,270Z">
	</path>
</svg>
